X: 10161
T: Mrs Mc DONALD'S FAVORITE.     a Reel.
R: reel
B: "Edinburgh Repository of Music" v.1 p.16 #1
F: http://digital.nls.uk/special-collections-of-printed-music/pageturner.cfm?id=87776133
Z: 2015 John Chambers <jc:trillian.mit.edu>
M: C|
L: 1/8
K: D
A !segno!|\
d3c edcB | A^GAB ABAF |\
DBAF DBAF | G2E2 E2A2 |\
d3c edcB |
A^GAB ABAF |\
DBAF EFGA | F2D2 D3 :|\
|: f |\
efgf edce | defg a3a |
ageg gfdf | ecdB A3f |\
efgf edce | defg a3a |\
ageg gfdf | edcB AABc !segno!|]
